X:1
T:#
T:Johann Sebastian Bach - Johannes-Passion - BWV 245 Nr. 1 - Herr, unser Herrscher
%%score [ 1 2 3 4 ]
L:1/8
Q:1/4=120
M:4/4
K:Bb
V:1 treble nm="MusicXML Part"
V:2 treble nm="MusicXML Part"
V:3 treble-8 nm="MusicXML Part"
V:4 bass nm="MusicXML Part"
V:1
 z8 | z8 | z8 | z8 | z8 | z8 | z8 | z8 | z8 | z8 | z8 | z8 | z8 | z8 | z8 | z8 | z8 | z8 | %18
w: ||||||||||||||||||
 g2 z2 e2 z2 | c2 z2 z2 ^FF | G/^F/G/A/ G/F/G/B/ A/G/A/B/ A/G/A/c/ | %21
w: Herr, Herr,|Herr, un- ser|Herr * * * * * * * * * * * * * * *|
 B/A/B/c/ B/A/B/d/ c/B/c/d/ c/B/c/e/ | dG z2 z2 g2 | z2 e2 z2 c2 | z2 =BB c/B/c/d/ c/B/c/e/ | %25
w: |* scher, Herr,|Herr, Herr,|un- ser Herr * * * * * * *|
 d/c/d/e/ d/c/d/f/ e/d/e/f/ e/d/e/g/ | f/e/f/g/ f/e/f/_a/ gccd | e2 z e dcdA | %28
w: |* * * * * * * * * scher, des- sen|Ruhm in al- len Lan- den|
 B/A/B/c/ B/A/B/c/ dB/G/ gg | ^c/=B/c/d/ c/B/c/d/ =eG_BA | ^F2 z2 z4 | z8 | z8 | z8 | %34
w: herr * * * * * * * * lich, in al- len|Lan * * * * * * * * den herr- lich|ist;||||
 g2 GA =B e2 d/c/ | d g2 f/e/ fd=BG | ge z2 z ABc | d/c/d/f/ =e/g/^f/a/ gGAB | %38
w: Herr, un- ser Herr * * *|* * * * * scher, un- ser|Herr- scher, Herr, un- ser|Herr * * * * * * * * scher, un- ser|
 c/B/c/_e/ d/^f/=e/g/ fdAd | BG g2 z2 e2 | z2 c2 z2 ^FF | G/^F/G/A/ G/F/G/B/ A/G/A/B/ A/G/A/c/ | %42
w: Herr * * * * * * * * scher, un- ser|Herr- scher, Herr, Herr,|Herr, un- ser|Herr * * * * * * * * * * * * * * *|
 B/A/B/c/ B/A/B/d/ c/B/c/d/ c/B/c/e/ | dG d (=f/e/) f2 z f | (ed) (cB) (AG) (AB) | %45
w: |* scher, des- sen * Ruhm in|al * len * Lan * den *|
 (cB) (AG) ^F2 d2 | z2 (d/c/) (B/A/) BG z2 | g2 z2 z =e ^c>d | dA z2 z4 | z2 AA dddd | %50
w: herr * lich * ist, Herr,|un * ser * Herr- scher,|Herr, Herr, un- ser|Herr- scher,|des- sen Ruhm in al- len|
 d/c/d/e/ d/e/d/c/ _B/A/B/c/ B/c/B/A/ | GGGG cccc | c/B/c/d/ c/d/c/B/ _A/G/A/B/ A/B/A/G/ | %53
w: Lan * * * * * * * * * * * * * * *|* den, des- sen Ruhm in al- len|Lan * * * * * * * * * * * * * * *|
 FFFF BBBB | B/A/B/c/ B/c/B/A/ GGcA | z2 dG z2 g2- | g^f (g=e) f3 g | !fermata!g2 z2 z4 | z8 | %59
w: * den, des- sen Ruhm in al- len|Lan * * * * * * * * den herr- lich,|herr- lich, herr-|* * lich, * herr- lich|ist.||
 z4 c2 CD | (=E _A2) (G/F/) (G c2 B/A/) | (B _d2) (c/B/) _A2 z2 | f2 FG (=A =d2) (c/B/) | %63
w: Zeig' uns durch|dei * ne * Pas * * *|* * si * on,|daß du, der wah * re *|
 (c e2) (d/c/) d2 z2 | z2 d2 D (=E/^F/) GB | (A^F) (DA) BGBd | g2!p! d2 B2 G2 | %67
w: Got * tes * Sohn,|daß du, der * wah- re|Got * tes * Sohn, zu al- ler|Zeit, auch in der|
 E2 (EF) (GE) (D^C) | ^C4 z2 z!f! C | D/^C/D/=E/ D/C/D/F/ E/D/E/F/ E/D/E/G/ | %70
w: größ- ten * Nie * drig *|keit, ver-|herr * * * * * * * * * * * * * * *|
 F/=E/F/G/ F/E/F/A/ G/F/G/A/ G/F/G/B/ | ADAB c2 z d | G/^F/G/A/ G/F/G/B/ A/G/A/B/ A/G/A/c/ | %73
w: |* licht wor- den bist, ver-|herr * * * * * * * * * * * * * * *|
 B/A/B/c/ B/A/B/d/ c/B/c/d/ c/B/c/e/ | dGGA B (g/f/) =ed | (^c=B) (cA) dD (FA) | %76
w: |* licht wor- den bist, ver- * herr- licht|wor- * den * bist, ver- herr- *|
 da/g/ f>=e d>c (=B>A) | ^G3 A A2 z2 | a2 A=B (^c f2) (=e/d/) | (=e g2) (f/e/) f2 z2 | z4 d2 D=E | %81
w: * * * * * * * licht *|wor- den bist,|zeig' uns durch dei * ne *|Pas * si * on,|daß du, der|
 (^F A2) (G/F/) (G c2) (B/A/) | B2 z D =FA d2- | d2!p! f2 (d>^c) d2 | (d=B) (^G=F) D3 D | %85
w: wah * re * Gott * tes *|Sohn, zu al- ler Zeit,|* auch in * der|größ * ten * Nie- drig-|
 ^C!f!=E =e2- e/d/e/f/ e/f/e/d/ | =c/=B/c/d/ c/d/c/_B/ AAcA | dD d2- d/c/d/e/ d/e/d/c/ | %88
w: keit, ver- herr * * * * * * * *|* * * * * * * * * licht wor- den|bist, ver- herr- * * * * * * * *|
 _B/A/B/c/ B/c/B/A/ GGBG | cC c2- c/B/c/d/ c/d/c/B/ | A/G/A/B/ A/B/A/G/ FDFD | GdBG z2 z A | %92
w: * * * * * * * * * licht wor- den|bist, ver- herr * * * * * * * *|* * * * * * * * * licht wor- den|bist, ver- herr- licht, ver-|
 =B/A/B/^c/ B/A/B/c/ d/c/d/=e/ d/c/d/e/ | f/=e/d/^c/ d=B c3 d | d2 z2 z4 |] %95
w: herr * * * * * * * * * * * * * * *|* * * * * licht wor- den|bist.|
V:2
 z8 | z8 | z8 | z8 | z8 | z8 | z8 | z8 | z8 | z8 | z8 | z8 | z8 | z8 | z8 | z8 | z8 | z8 | %18
w: ||||||||||||||||||
 B2 z2 B2 z2 | A2 z2 z2 DD | D/C/D/E/ D/C/D/G/ E/D/E/F/ E/D/E/C/ | %21
w: Herr, Herr,|Herr, un- ser|Herr * * * * * * * * * * * * * * *|
 G/^F/G/A/ G/F/G/B/ A/G/A/B/ A/G/A/c/ | BD z2 z2 G2 | z2 G2 z2 F2 | z2 DG G/F/G/_A/ G/F/G/E/ | %25
w: |* scher, Herr,|Herr, Herr,|un- ser Herr * * * * * * *|
 _A/G/A/B/ A/G/A/F/ G/F/G/A/ G/F/G/E/ | _AGAD GEGG | ^F2 z c =AFDF | G/^F/G/A/ G/F/G/A/ BG/G/ GB | %29
w: |* scher, un- ser Herr- scher, des- sen|Ruhm in al- len Lan- den|herr * * * * * * * * lich, in al- len|
 =E/D/E/=F/ G/F/G/A/ BEEE | A,2 z2 z4 | z8 | z8 | d2 D=E ^F A2 G/F/ | GD z2 z4 | %35
w: Land * * * * * * * * den herr- lich|ist;|||Herr, un- ser Herr * * *|* scher,|
 G2 GA =B d2 (c/B/) | cG z2 F2 z2 | F2 z2 E2 z2 | E2 z2 z ^FAF | DD d2 z2 B2 | z2 A2 z2 DD | %41
w: Herr, un- ser Herr * * *|* scher, Herr,|Herr, Herr,|Herr, Herr, un- ser|Herr- scher, Herr, Herr|Herr, un- ser|
 D/C/D/E/ D/C/D/G/ E/D/E/F/ E/D/E/C/ | G/^F/G/A/ G/F/G/B/ A/G/A/B/ A/G/A/c/ | BDGG =B2 z G | %44
w: Herr * * * * * * * * * * * * * * *||* scher, des- sen Ruhm in|
 G2 G2 (cB) (AG) | (AD) (ED) D2 z2 | d2 z2 (d/c/) (B/A/) BG | z2 =E2 z G E>D | DDDD AAAA | %49
w: al- len Lan * den *|herr * lich * ist,|Herr, un * ser * Herr- scher,|Herr, Herr, un- ser|Herr- scher, des- sen Ruhm in al- len|
 A/G/A/B/ A/B/A/G/ F/E/F/G/ F/G/F/E/ | DDDD GGGG | G/F/G/A/ G/A/G/F/ _E/D/E/F/ E/F/E/D/ | %52
w: Lan * * * * * * * * * * * * * * *|* den, des- sen Ruhm in al- len|Lan * * * * * * * * * * * * * * *|
 CCCC FFFF | F/E/F/G/ F/G/F/E/ D/C/D/E/ D/E/D/C/ | B,G,BG z2 GE | z2 GD z2 BB | A4 A4 | %57
w: * den, des- sen Ruhm in al- len|Lan * * * * * * * * * * * * * * *|* den herr- lich, herr- lich,|herr- lich, herr- lich,|herr- lich|
 !fermata!B2 z2 z4 | z4 e2 EF | (G B2) _A (G c2) (B/A/) | B2 z2 c2 CD | %61
w: ist.|Zeig' uns durch|dei * ne Pas * si *|on, zeig' uns durch|
 (=E G2) (F/E/) (F _d2) (c/B/) | c2 z2 F2 FG | (A c2) B (A d2) (c/B/) | c2 z2 d2 D=E | %65
w: dei * ne * Pas * si *|on, daß du, der|wah * re Got * tes *|Sohn, daß du, der|
 (^F A2) (G/F/) G e2 (d/c/) | B2 z G, B,DG!p!D | B,B,B,D (EB,) (B,A,) | A,4 z2 z!f! A, | %69
w: wah * re * Got * tes *|Sohn, zu al- ler Zeit, auch|in der größ- ten Nie * drig *|keit, ver-|
 A,/G,/A,/B,/ A,/G,/A,/C/ B,/A,/B,/D/ ^C/=B,/C/=E/ | D/^C/D/=E/ D/C/D/F/ E/D/E/F/ E/D/E/G/ | %71
w: herr * * * * * * * * * * * * * * *||
 F>G F_E D2 z D | D/C/D/E/ D/C/D/F/ E/D/E/F/ E/D/E/C/ | D/C/D/E/ D/C/D/G/ (ED) (EA,) | %74
w: * licht wor- den bist, ver-|herr * * * * * * * * * * * * * * *|* * * * * * * * * * licht *|
 (DB,) D2 ^C2 z G | (=ED)AA A/=G/A/B/ A/G/A/B/ | A/^G/A/=B/ A/G/A/B/ G/^F/G/A/ G/F/G/A/ | %77
w: wor * den bist, ver-|herr * licht, ver- herr * * * * * * *||
 =BD=B,F =E2 z2 | z8 | z4 d2 D=E | (^F B2) (A/G/) A d2 c/B/ | (cA) (^FD) G2 z D | GB d2!p! A2 F2 | %83
w: * licht wor- den bist,||daß du, der|wah * re * Got * * *|* * tes * Sohn, zu|al- ler Zeit, auch in|
 D2 B,4 B,2 | =B,6 B,2 | A,!f!=E=GE AAAA | A/G/A/_B/ A/B/A/G/ ^F/=E/F/G/ F/G/F/E/ | DD=FD GG, G2- | %88
w: der größ- ten|Nie- drig-|keit, ver- herr- licht wor- den bist, ver-|herr * * * * * * * * * * * * * * *|* licht wor- den bist, ver- herr-|
 G/F/G/A/ G/A/G/F/ =E/D/E/F/ E/F/E/D/ | CC_EC FF, F2- | F/=E/F/G/ F/G/F/E/ D/^C/D/E/ D/E/D/=C/ | %91
w: |* licht wor- den bist, ver- herr-||
 _B,G z D ^FA z D | D/^C/D/=E/ D/C/D/E/ =F/E/F/G/ F/E/F/E/ | D/^C/D/=E/ F/E/ (F/G/) A3 A | %94
w: * licht, ver- herr- licht, ver-|herr * * * * * * * * * * * * * * *|* * * * * * licht * wor- den|
 A2 z2 z4 |] %95
w: bist.|
V:3
 z8 | z8 | z8 | z8 | z8 | z8 | z8 | z8 | z8 | z8 | z8 | z8 | z8 | z8 | z8 | z8 | z8 | z8 | %18
w: ||||||||||||||||||
 d2 z2 g2 z2 | ^f2 z2 z2 AA | Gd/c/ dB c/B/c/d/ c/B/c/A/ | d/c/d/e/ d/c/d/B/ ecA^f | dB z2 z2 d2 | %23
w: Herr, Herr,|Herr, un- ser|Herr * * * * * * * * * * * *|* * * * * * * * * scher, un- ser|Herr- scher, Herr,|
 z2 e2 z2 _a2 | z2 gG c/d/e/f/ e/d/e/c/ | f/e/f/g/ f/e/f/_a/ g=Bcc | c=BBd dGed | c2 z G ddAd | %28
w: Herr, Herr,|un- ser Herr * * * * * * *|* * * * * * * * * scher, un- ser|Herr- scher, un- ser Herr- scher, des- sen|Ruhm in al- len Lan- den|
 d/c/d/e/ d/c/d/e/ dd/c/ dd | g2- g/a/g/f/ =eeGG | d2 z2 z4 | z8 | z4 d2 D=E | %33
w: herr * * * * * * * * lich, in al- len|Lan- * * * * * den herr- lich|ist;||Herr, un- ser|
 ^F B2 A/G/ A c2 B/A/ | BG z2 g2 GA | =B e2 (d/c/) d f2 (e/d/) | ec z2 c2 z2 | B2 z2 B2 z2 | %38
w: Herr * * * * * * *|* scher, Herr, un- ser|Herr * * * * * * *|* scher, Herr,|Herr, Herr,|
 A2 z2 z AdA | BB G2 z2 g2 | z2 ^f2 z2 AA | Gd/c/ dB c/B/c/d/ c/B/c/A/ | d/c/d/e/ d/c/d/B/ ecA^f | %43
w: Herr, Herr, un- ser|Herr- scher, Herr, Herr|Herr, un- ser|Herr * * * * * * * * * * * *|* * * * * * * * * scher, un- ser|
 dBBB d2 z =B | (cG) (cd) ed (cB) | (ed) (cd) A2 z2 | z2 d2 z2 (d/c/) (B/A/) | BG z2 B2 GB | %48
w: Herr- scher, des- sen Ruhm in|al * len * Lan * den *|herr * lich * ist,|Herr, un * ser *|Herr- scher, Herr, un- ser|
 AA z2 z2 AA | dddd d/c/d/e/ d/e/d/c/ | =B/A/B/c/ B/c/B/A/ GGGG | cccc c/B/c/d/ c/d/c/B/ | %52
w: Herr- scher, des- sen|Ruhm in al- len Lan * * * * * * *|* * * * * * * * * den, des- sen|Ruhm in al- len Lan * * * * * * *|
 A/G/A/B/ A/B/A/G/ FFFF | BBBB B/A/B/c/ B/c/B/A/ | G/^F/G/A/ G/A/G/=F/ _EEec | z2 =BG z2 GG | %56
w: * * * * * * * * * den, des- sen|Ruhm in al- len Lan * * * * * * *|* * * * * * * * * den herr- lich,|herr- lich, herr- lich,|
 d4 d4 | !fermata!d2 z2 z4 | e2 EF (G c2) (B/_A/) | (B _d2) (c/B/) c2 z2 | z8 | z4 f2 FG | %62
w: herr- lich|ist.|Zeig' uns durch dei * ne *|Pas * si- * on,||daß du, der|
 (=A =d2) (c/B/) c f2 e/d/ | ec (AG) ^F2 z2 | d2 D=E (^F B2) (A/G/) | (A c2) (B/A/) G2 z G | %66
w: wah * re * Got * * *|* * tes * Sohn|daß du, der wah * re *|Got * tes * Sohn, zu|
 Bd g2!p! d2 B2 | G G2 _A (BG) (F=E) | =E4 z2 z!f! E | F/=E/F/G/ F/E/F/A/ G/F/G/A/ G/F/G/E/ | %70
w: al- ler Zeit, auch in|der größ- ten Nie * drig *|keit, ver-|herr * * * * * * * * * * * * * * *|
 F/G/A/B/ A/G/A/F/ (Bg) (^c=e) | (Ad) (=cB) A2 z A | B/A/B/c/ B/A/B/d/ c/B/c/d/ c/B/c/e/ | %73
w: * * * * * * * * * * licht *|wor * den * bist, ver-|herr * * * * * * * * * * * * * * *|
 d^F G3 FFA | ADBA G2 z B | (Af)=e^c f/e/f/g/ f/e/f/g/ | f/=e/f/e/ f/e/f =B/A/B/c/ d/c/d/e/ | %77
w: * licht wor- den bist, ver-|herr- licht wor- den bist, ver-|herr * licht, ver- herr * * * * * * *||
 f=B (d/^c/)d c2 z2 | z4 a2 A=B | (^c =e2) (d/c/) d3 (=c/_B/) | A2 d2 D=E^FB | (A^F) (DA) BDGB | %82
w: * licht wor * den bist,|zeig' uns durch|dei * ne * Pas- si- *|on, daß du, der wah- re|Got * tes * Sohn, zu al- ler|
 d2!p! G2 =F2 D2 | F2 F2 F4- | F4 F4 | =E z z2 z!f! E=GE | AAAA A/G/A/B/ A/B/A/G/ | %87
w: Zeit, auch in der|größ- ten Nie-|* drig-|keit, ver- herr- licht|wor- den bist, ver- herr * * * * * * *|
 =F/=E/F/G/ F/G/F/E/ DDFD | GG g2- g/f/g/a/ g/a/g/f/ | _e/d/e/f/ e/f/e/d/ ccec | %90
w: * * * * * * * * * licht wor- den|bist, ver- herr- * * * * * * * *|* * * * * * * * * licht wor- den|
 fF f2- f/=e/f/g/ f/g/f/e/ | dd z d d^F z A | =f/=e/f/g/ f/e/f/e/ d/e/d/^c/ d2- | %93
w: bist, ver- herr- * * * * * * * *|* licht, ver- herr- licht, ver-|herr * * * * * * * * * * * *|
 d/=e/f/g/ ad e3 e | ^f2 z2 z4 |] %95
w: * * * * * licht wor- den|bist.|
V:4
 z8 | z8 | z8 | z8 | z8 | z8 | z8 | z8 | z8 | z8 | z8 | z8 | z8 | z8 | z8 | z8 | z8 | z8 | %18
w: ||||||||||||||||||
 G,2 z2 B,2 z2 | E2 z2 z2 DC | B,A,B,G, A,G,A,^F, | G,A,B,G, CA,DD, | G,G,, z2 z2 =B,2 | %23
w: Herr, Herr,|Herr, un- ser|Herr * * * * * * *|* * * * * scher, un- ser|Herr- scher, Herr,|
 z2 C2 z2 D2 | z2 G,D, E,G,E,C, | =B,,D,B,,G,, C,D,E,C, | D,/C,/D,/E,/ D,/C,/D,/F,/ E,C,C_B, | %27
w: Herr, Herr,|un- ser Herr * * *|* * * * * scher, un- ser|Herr * * * * * * * * scher, des- sen|
 A,B,A,G, (^F,A,) (F,D,) | G,G,,B,,D, G,G,/A,/ B, (B,/A,/) | G,/A,/G,/F,/ =E,/F,/E,/D,/ ^C,C,C,C, | %30
w: Ruhm in al- len Lan * den *|herr * * * * lich, in al- len *|Lan * * * * * * * * den herr- lich|
 D,2 z2 z4 | z8 | D2 D,=E, ^F, B,2 A,/G,/ | A, D2 C/B,/ CA,^F,D, | G,G,, z2 z4 | z8 | %36
w: ist;||Herr, un- ser Herr * * *|* * * * * scher, un- ser|Herr- scher,||
 z C,D,E, F,/E,/F,/A,/ G,/B,/A,/C/ | B,B,,C,D, E,/D,/E,/G,/ ^F,/A,/G,/B,/ | %38
w: Herr, un- ser Herr * * * * * * *|* scher, un- ser Herr * * * * * * *|
 A,A,,B,,C, D,/C,/D,/=E,/ ^F,D, | G,G,, B,2 z2 G,2 | z2 E2 z2 DC | B,A,B,G, A,G,A,^F, | %42
w: * scher, un- ser Herr * * * * *|* scher, Herr, Herr,|Herr, un- ser|Herr * * * * * * *|
 G,A,B,G, CA,DD, | G,G,,G,G, _A,2 z G, | (CB,) (A,B,) (CD)EG, | ^F,G,A,B, (CA,) (F,D,) | %46
w: * * * * * scher, un- ser|Herr- scher, des- sen Ruhm in|al- * len * Lan * den, in|al- len Lan- den herr * lich *|
 G,2 z2 D2 z2 | (D/C/) (B,/A,/) B,G, z G,B,G, | DD, z2 z4 | z4 z2 D,D, | %50
w: ist, Herr,|un * ser * Herr- scher, Herr, un- ser|Herr- scher,|des- sen|
 G,G,G,G, G,/F,/G,/A,/ G,/A,/G,/F,/ | =E,/D,/E,/F,/ E,/F,/E,/D,/ C,C,C,C, | %52
w: Ruhm in al- len Lan * * * * * * *|* * * * * * * * * den, des- sen|
 F,F,F,F, F,/E,/F,/G,/ F,/G,/F,/E,/ | D,/C,/D,/E,/ D,/E,/D,/C,/ B,,B,,D,B,, | z2 G,=E, z2 C_E | %55
w: Ruhm in al- len Lan * * * * * * *|* * * * * * * * * den herr- lich,|herr- lich, des- sen|
 D^CD=B, C3 C | D4 D,4 | !fermata!G,2 z2 E2 E,F, | (G, C2) (B,/_A,/) B, E2 _D/C/ | %59
w: Ruhm in al- len Lan- den|herr- lich|ist. Zeig' uns durch|dei * ne * Pas * * *|
 _DB, (G,F,) =E,2 z2 | C2 C,D, (=E, _A,2) (G,/F,/) | (G, B,2) (_A,/G,/) F,2 z2 | z8 | z4 D2 D,=E, | %64
w: * * si- * on,|zeig' uns durch dei * ne *|Pas * si- * on,||daß du, der|
 (^F, B,2) (A,/G,/) A, D2 (C/B,/) | C E2 (D/C/) B,2 z2 | z G,,B,,D, G,2 z!p! G, | %67
w: wah- * re * Got * * *|* * tes * Sohn,|zu al- ler Zeit, auch|
 G,E,B,,_A,, G,,2 G,,2 | G,,4 z2 z!f! G, | F,=E,F,D, B,,G,,A,,A, | D,=E,F,D, (G,B,) (E,^C,) | %71
w: in der größ- ten Nie- drig-|keit, ver-|herr * * * * * * *|* * * * * * licht *|
 (F,B,) (A,G,) ^F,2 z D, | DA,B,G, ^F,A,- A,G,/F,/ | G,A,B,G, A,/G,/A,/B,/ A,/G,/A,/C/ | %74
w: wor * den * bist, ver-|herr * * * * * * * *|* * licht, ver- herr * * * * * * *|
 B,DG,=F, =E,2 z G, | (G,F,) G, (A,/=E,/) F,/G,/F,/E,/ F,/G,/F,/E,/ | F,D, z A, DDDD, | %77
w: * licht wor- den bist, ver-|herr * licht, ver * herr * * * * * * *|* licht, ver- herr- licht wor- den|
 D,2 z2 A,2 A,,=B,, | (^C, F,2) (=E,/D,/) E, A,2 G,/F,/ | G,=E, (^C,A,,) D,2 z2 | %80
w: bist, zeig' uns durch|dei- * ne * Pas * * *|* * si- * on,|
 D2 D,=E, (^F, B,2) (A,/G,/) | (A, C2) (B,/A,/) G,2 z2 | z D,G,B, D2!p! A,2 | %83
w: daß du, der wah * re *|Got * tes * Sohn,|zu al- ler Zeit, auch|
 F,2 D,2 (B,,A,,) (A,,^G,,) | ^G,,6 G,,2 | A,,2 z2 z4 | z!f! A,=CA, DDDD | %87
w: in der größ * ten *|Nie- drig-|keit,|ver- herr- licht wor- den bist, ver-|
 D/C/D/=E/ D/E/D/C/ =B,/A,/B,/C/ B,/C/B,/A,/ | G,G,_B,G, CC, C2- | %89
w: herr * * * * * * * * * * * * * * *|* licht wor- den bist, ver- herr-|
 C/B,/C/D/ C/D/C/B,/ A,/G,/A,/B,/ A,/B,/A,/G,/ | F,F,A,F, =B,,=B,DB, | G,G, z _B, A,D,^F,A, | %92
w: |* licht wor- den bist, ver- herr- licht|wor- den, ver- herr * * *|
 D (D/^C/ D)=B, ^G,3 G, | A,4 A,,4 | D,2 z2 z4 |] %95
w: * licht, * * ver- herr- licht|wor- den|bist.|

